icon-themes/sifr_svg/cmd/lc_outlineformat.svg

<svg viewBox="0 0 24 24" xmlns="http://www.w3.org/2000/svg"><path d="m20.800781 0-1.601562 1.6230469c1.06699 1.0643895 2.134439 2.1298828 3.201172 3.1953125l1.599609-1.6191406c0-.1949876.003499-.4132347-.050781-.625-.03627-.1767788-.135059-.3351893-.199219-.5-.388757-.9986455-1.227971-1.7769258-2.300781-1.9960938-.215441-.039035-.456119-.03578095-.648438-.078125zm-15.800781 2v2 5h.2617188c-1.909005 1.137606-3.2617188 3.135262-3.2617188 5.5 0 3.566161 2.9338382 6.5 6.5 6.5h13.5v-12c0-.7191167-.111404-1.4134165-.316406-2.0683594l-1.701172 1.7011719c.008848.1215742.017578.2433557.017578.3671875v10h-11.5c-2.4852814 0-4.5-2.014719-4.5-4.5s2.0147186-4.5 4.5-4.5h.8867188l2.9980472-3h-5.384766v-3h8c.123832 0 .245612.0087301.367188.0175781l1.52539-1.5253906.175781-.1757813c-.654942-.2050024-1.349242-.3164062-2.068359-.3164062zm12.599609 1.1992188-9.599609 9.6015622v3.199219h3.199219l9.601562-9.5996094zm-1.986328 9.8007812-3 3h4.386719v-3z" fill="#555753"/></svg>

<svg xmlns="http://www.w3.org/2000/svg" viewBox="0 0 24 24">
  <path
     style="fill:#555753"
     d="M 20.800781 0 L 19.199219 1.6230469 C 20.266209 2.6874364 21.333658 3.7529297 22.400391 4.8183594 L 24 3.1992188 C 24 3.0042312 24.003499 2.7859841 23.949219 2.5742188 C 23.912949 2.39744 23.81416 2.2390295 23.75 2.0742188 C 23.361243 1.0755733 22.522029 0.297293 21.449219 0.078125 C 21.233778 0.03909 20.9931 0.04234405 20.800781 0 z M 5 2 L 5 4 L 5 9 L 5.2617188 9 C 3.3527138 10.137606 2 12.135262 2 14.5 C 2 18.066161 4.9338382 21 8.5 21 L 22 21 L 22 9 C 22 8.2808833 21.888596 7.5865835 21.683594 6.9316406 L 19.982422 8.6328125 C 19.99127 8.7543867 20 8.8761682 20 9 L 20 19 L 8.5 19 C 6.0147186 19 4 16.985281 4 14.5 C 4 12.014719 6.0147186 10 8.5 10 L 9.3867188 10 L 12.384766 7 L 7 7 L 7 4 L 15 4 C 15.123832 4 15.245612 4.0087301 15.367188 4.0175781 L 16.892578 2.4921875 L 17.068359 2.3164062 C 16.413417 2.1114038 15.719117 2 15 2 L 5 2 z M 17.599609 3.1992188 L 8 12.800781 L 8 16 L 11.199219 16 L 20.800781 6.4003906 L 17.599609 3.1992188 z M 15.613281 13 L 12.613281 16 L 17 16 L 17 13 L 15.613281 13 z "
     />
</svg>
